X:1
T:Title
%%score { ( 1 3 ) | 2 }
L:1/8
M:4/4
K:Eb
V:1 treble nm="Grand Piano"
V:3 treble 
V:2 bass 
V:1
 z4 z2[Q:1/4=92] E>F | G>G AG [EG][DF][DF][EG] | [FA][FA][EG][DF] [EG]2 [EG]>[FA] | %3
 [GB]>[GB] [Ac][GB] [GB][EG][FA]G | FBB=A [DB]2 [EG]>[EB] | [Ge]>[Ge] [Bd][Ac] [GB][EG][EG][GB] | %6
 [Ac][GB][GB][EG] [DF]2 [DB]>[FA] | [EG]>[EG] [GB][Ac] [GB]GE[EF] |[M:3/4] [EG][FA] [EG]>[DF] E2 | %9
[M:1/4] G>G |[M:4/4] [GB]4 [EG]2 z2 | [Ae]4 [Ac]2 z2 | B2 G2 [GB]2 [FA]2 |[M:3/4] [EG]6 | %14
[M:1/4] [GB]>[GB] |[M:4/4] [Ac]4 [EA]2 z2 | [Ge]4 [GB]2 z2 | B2 A2 [EG]2 [DF]2 |[M:3/4] E6 |] %19
V:2
 z4 z2 [E,G,]>[E,A,E] | [E,B,E]>[E,B,E] [E,CE][E,B,E] [B,,B,][B,,B,][B,,B,][B,,B,] | %2
 [B,,B,][B,,B,][B,,B,][B,,B,] [E,B,]2 [E,B,]>[E,B,] | %3
 [E,E]>[E,E] [E,E][E,E] [E,E][E,B,][D,B,][E,B,E] | %4
 [F,B,D][F,DF][F,DF][F,CE] [B,,B,]2 [E,B,]>[E,G,] | %5
 [E,B,]>[E,B,] [E,B,][E,E] [E,E][E,B,][E,B,][E,E] | %6
 [E,E][E,E][E,E][E,B,] [B,,B,]2 [B,,B,]>[B,,B,] | %7
 [E,B,]>[E,B,] [E,E][E,E] [E,E][E,B,E][E,G,][C,=A,] | %8
[M:3/4] [B,,B,][B,,B,] [B,,B,]>[B,,A,] [E,G,]2 |[M:1/4] [E,B,E]>[E,B,E] | %10
[M:4/4] [E,E]>E, E,E, E,E, [E,B,]>[E,B,] | [A,C]>A, A,A, A,A,[K:treble] [A,EA]>[A,EA] | %12
 [B,EG]2[K:bass] [B,E]2 [B,,B,]2 [B,,B,]2 |[M:3/4] [E,B,]6 |[M:1/4] [E,E]>[E,E] | %15
[M:4/4] [A,E]>A, A,A, A,A,[K:treble] [A,EA]>[A,EA] | [E,E]>E, E,E, E,E,[K:treble] [A,EA]>[A,EA] | %17
 [B,EG]2 [B,F]2[K:bass] [B,,B,]2 [B,,A,]2 |[M:3/4] [E,G,]6 |] %19
V:3
 x8 | x8 | x8 | x8 | x8 | x8 | x8 | x8 |[M:3/4] x6 |[M:1/4] x2 |[M:4/4] z z/ E/ EE B,B, [Ge]>[Ge] | %11
 z z/ C/ CC EE c>c | x8 |[M:3/4] x6 |[M:1/4] x2 |[M:4/4] z z/ E/ EE CC c>c | z z/ B,/ B,B, EE c>c | %17
 x8 |[M:3/4] x6 |] %19

